storage/app/icons/phosphoricons/fill/sim-card-fill.svg

<svg xmlns="http://www.w3.org/2000/svg" fill="currentColor" viewBox="0 0 256 256"><path d="m213.66 82.34-56-56A8 8 0 0 0 152 24H56a16 16 0 0 0-16 16v176a16 16 0 0 0 16 16h144a16 16 0 0 0 16-16V88a8 8 0 0 0-2.34-5.66M184 192a8 8 0 0 1-8 8h-16a4 4 0 0 1-4-4v-35.73a8.17 8.17 0 0 0-7.47-8.25 8 8 0 0 0-8.53 8v36a4 4 0 0 1-4 4h-16a4 4 0 0 1-4-4v-35.75a8.17 8.17 0 0 0-7.47-8.25 8 8 0 0 0-8.53 8v36a4 4 0 0 1-4 4H80a8 8 0 0 1-8-8V136a8 8 0 0 1 8-8h96a8 8 0 0 1 8 8Z"/></svg>

<svg xmlns="http://www.w3.org/2000/svg" viewBox="0 0 256 256" fill="currentColor"><path d="M213.66,82.34l-56-56A8,8,0,0,0,152,24H56A16,16,0,0,0,40,40V216a16,16,0,0,0,16,16H200a16,16,0,0,0,16-16V88A8,8,0,0,0,213.66,82.34ZM184,192a8,8,0,0,1-8,8H160a4,4,0,0,1-4-4V160.27a8.17,8.17,0,0,0-7.47-8.25,8,8,0,0,0-8.53,8v36a4,4,0,0,1-4,4H120a4,4,0,0,1-4-4V160.27a8.17,8.17,0,0,0-7.47-8.25,8,8,0,0,0-8.53,8v36a4,4,0,0,1-4,4H80a8,8,0,0,1-8-8V136a8,8,0,0,1,8-8h96a8,8,0,0,1,8,8Z"/></svg>
